X: 103
T: No_62_Juggler's_Song_(b).krn
N: Derived from No_62_Juggler's_Song_(b).krn
%%abc-version 2.0
%%abcx-abcm2ps-target-version 5.9.1 (29 Sep 2008)
%%abc-creator hum2abc beta
%%abcx-conversion-date 2019/03/15 08:35:45
%%humdrum-veritas 258142165
%%humdrum-veritas-data 2886936856
%%linebreak <none>
%%barnumbers 0
L: 1/8
M: 2/4
K: B clef=bass
[K:clef=bass][M:2/4]z2z C | 
C7/B,/ ||  
[M:3/4]B,2B,2z B, | 
B,4z3/ B,/ ||  
[M:2/4]B,3B, | 
(B,3/G,/)G,2- ||  
[M:3/4]G,4z C ||  
[M:2/4]C7/C/ | 
C2C2 ||  
[M:3/4]B,4z A, ||  
[M:2/4](G,3/F,/)F,2- | 
F,2z G, ||  
[M:3/4]G,7/F,/F,2 | 
F,6- ||  
[M:2/4]F,2z F, | 
F,7/B,/ | 
B,2B,2- ||  
[M:3/4]B,4z A, ||  
[M:2/4]G,2F,/ z/ F, | 
F,3F, ||  
[M:3/4]F,3/D,/D,2z G, ||  
[M:2/4]G,7/F,/ | 
F,2G,2 ||  
[M:3/4]F,4-F,3/D,/ | 
(C,3/B,,/)B,,2z D, | 
(C,2B,,)B,, B,,3/C,/ | 
B,,6- | 
B,,4z2 |]  



